X: 25159
T: Majofis
R: reel
M: 4/4
K: Dminor
"A"A=B^cd efed|^c2 A2 "Dm"d3d|"A"e2de gfed|^c2 e/f/e "Dm"d3d|
"A"A=B^cd efed|^c2 A2 "Dm"d3d|"A"^cedc "Bb"BA"Gm"GB|"A"A2 AE A3E:|
|:"A"A2 ^c2 c3 c|"Dm"A2 d2 d3 d|"A"A2 ^ce Acec|"Dm"defg gaa2|
"A"A2 ^c2 c3 c|"Dm"A2 d2 d3 d|"A"^cedc "Bb"BA"Gm"GB|1 "A"A2 AE A3E:|2 "A"A2 AE A3d||
|:"F"fg a2 a2 af|"C"gage c3A|"Am"cdef "Bb"gabg|"Am"a3f gfef|
"Dm"d2 f2 "F"f3 f|"A"efe^c A3 G|A=B^cd "A7/C#"efec|1 "Dm"d2 d^c d3d:|2 "Dm"d2 d^c d4||
"Variation"
|:"A"AB^cd efed|^cAce "Dm"d2 cd|"A"e^cAe gece|dA^ce "Dm"d2 cB|
"A"AB^cd efed|^cAce "Dm"d2 ed|"A"^cedc "Bb"BA"Gm"GB|"A"A^GAE A3E:|
|:"A"AE^cE AEAc|"Dm"d^cdA dFA^G|"A"AB^ce Acec|"Dm"defg agfe|
"A"^cEAE cEAc|"Dm"d^cdA dFAd|"A"^cedc "Bb"BA"Gm"GB|1 "A"A^GAE A3E:|2 "A"A^GAE A3d||
|:"F"fga^g abaf|"C"gage c2 cA|"Am"cdef "Bb"ga b/a/g|"Am"a^gaf =gfef|
"Dm"defe "F"f2 fd|"A"efe^c A2 A^G|AB^cd "A7/C#"efec|1 "Dm"d^cdA d3 d:|2 "Dm"d^cdA d4||

